X: 1142
T: Mrs Wright of Laton's Strathspey
%R: strathspey
B: Niel Gow & Sons "A Collection of Strathspey Reels, etc." v.1 p.14 #2
Z: 2022 John Chambers <jc:trillian.mit.edu>
M: C
L: 1/8
K: Em
% - - - - - - - - - -
% Voice 1 reformatted for 2 6-bar lines.
V: 1 staves=2
e |\
B<E TBA B<E B<e | dD {B}AG/F/ dD {B}AG/F/ |\
B<ETBA B<EB<e | d<Bd>F {F}E2E :|\
B |\
e<Be<g B<eg<e | d<fB<d F<DA>F |
e<Be<g B<eg>e | d<Bd>F {F}E2EB ||\
e<Be<g B<eg>e | d<fB<d F>DA<F |\
G<BE<B e<Bg>e | d<Bd>F {F}E2E |]
% - - - - - - - - - -
% Voice 2 preserves the staff layout in the book.
V: 2 clef=bass middle=d
z |\
e2e2 e2e2 | d2d2 d2d2 | e2e2 e2g2 | b2G2 e2e :| z | e2e2 e2e2 | d2g2
d2d2 | e2e2 e2g2 | b2B2 e2e2 || e2e2 e2e2 | e2g2 a2d2 | e2e2 e2g2 | b2G2 e2e |]


